X:58
T:Boston Boy
C:David Grisman 
R:bluegrass
A:Rounder
L:1/8
Q:1/4=100
M:2/4
K:C
z3G,/A,/ |: "C"C/A,/C/D/ E/G/E/G/ | "F"F/E/F/E/ F/E/D/F/ | "G"G/F/G/A/ B/d/B/d/ | "C"c/B/c/B/ A/G/E/D/ | 
|C/A,/C/D/ E/G/E/G/ | "F"F/E/F/E/ F/E/D/F/ | "G"G/F/G/A/ B/d/B/d/ | |1 c/"C"B/c/d/ cG,/A,/ :|2 c/"C"B/c/d/ c2|]
|: "C"e/g/e/d/ c/A/c/e/ | g/e/g/a/ g/e/d/c/ | "G"B/A/G/B/ A/G/G/B/ | "C"dc3 |
| e/g/e/d/ c/A/c/e/ | g/e/g/a/ g/e/d/c/ | "G"B/A/G/B/ A/G/E/G/ | "C"D/4E/4D/C3 :| 

